; ================================================
; LiSEC GFB-60/30RE Glass Cutting Program
; Generated by AI GlassCuttingProgram
; Date: 2026-04-13T09:30:20.655690
; Program: current_orders_real_shape
; ================================================

; Glass type: float
; Parts count: 2

; --- Machine Initialization ---
G21
G90
G17

; --- Safety Check ---
; Verify sheet position
; Verify coolant (if required)

; --- Start Cutting ---
M03 S1000


; --- Real shape part: 10416-1-S1 ---
; Bounding size: 600x900 mm
; Shape source: trial_fallback

; --- Shape: 10416-1-S1 ---
; Base position: (150.00, 150.00)
G00 X150.00 Y150.00
G01 X618.00 Y150.00
G01 X750.00 Y312.00
G01 X750.00 Y1050.00
G01 X282.00 Y1050.00
G01 X150.00 Y888.00
G01 X150.00 Y150.00
G01 X150.00 Y150.00

; --- Real shape part: 10416-1-S2 ---
; Bounding size: 600x900 mm
; Shape source: trial_fallback

; --- Shape: 10416-1-S2 ---
; Base position: (870.00, 150.00)
G00 X870.00 Y150.00
G01 X1338.00 Y150.00
G01 X1470.00 Y312.00
G01 X1470.00 Y1050.00
G01 X1002.00 Y1050.00
G01 X870.00 Y888.00
G01 X870.00 Y150.00
G01 X870.00 Y150.00

; --- Real shape part: 10416-1-S3 ---
; Bounding size: 600x900 mm
; Shape source: trial_fallback

; --- Shape: 10416-1-S3 ---
; Base position: (1590.00, 150.00)
G00 X1590.00 Y150.00
G01 X2058.00 Y150.00
G01 X2190.00 Y312.00
G01 X2190.00 Y1050.00
G01 X1722.00 Y1050.00
G01 X1590.00 Y888.00
G01 X1590.00 Y150.00
G01 X1590.00 Y150.00

; --- Real shape part: 10416-1-S4 ---
; Bounding size: 600x900 mm
; Shape source: trial_fallback

; --- Shape: 10416-1-S4 ---
; Base position: (2310.00, 150.00)
G00 X2310.00 Y150.00
G01 X2778.00 Y150.00
G01 X2910.00 Y312.00
G01 X2910.00 Y1050.00
G01 X2442.00 Y1050.00
G01 X2310.00 Y888.00
G01 X2310.00 Y150.00
G01 X2310.00 Y150.00

; --- Real shape part: 10416-1-S5 ---
; Bounding size: 600x900 mm
; Shape source: trial_fallback

; --- Shape: 10416-1-S5 ---
; Base position: (3030.00, 150.00)
G00 X3030.00 Y150.00
G01 X3498.00 Y150.00
G01 X3630.00 Y312.00
G01 X3630.00 Y1050.00
G01 X3162.00 Y1050.00
G01 X3030.00 Y888.00
G01 X3030.00 Y150.00
G01 X3030.00 Y150.00

; --- Real shape part: 10416-1-S6 ---
; Bounding size: 600x900 mm
; Shape source: trial_fallback

; --- Shape: 10416-1-S6 ---
; Base position: (3750.00, 150.00)
G00 X3750.00 Y150.00
G01 X4218.00 Y150.00
G01 X4350.00 Y312.00
G01 X4350.00 Y1050.00
G01 X3882.00 Y1050.00
G01 X3750.00 Y888.00
G01 X3750.00 Y150.00
G01 X3750.00 Y150.00

; --- Real shape part: 10416-3-S1 ---
; Bounding size: 1000x1200 mm
; Shape source: trial_fallback

; --- Shape: 10416-3-S1 ---
; Base position: (4470.00, 150.00)
G00 X4470.00 Y150.00
G01 X5250.00 Y150.00
G01 X5470.00 Y366.00
G01 X5470.00 Y1350.00
G01 X4690.00 Y1350.00
G01 X4470.00 Y1134.00
G01 X4470.00 Y150.00
G01 X4470.00 Y150.00

; --- Real shape part: 10416-3-S2 ---
; Bounding size: 1000x1200 mm
; Shape source: trial_fallback

; --- Shape: 10416-3-S2 ---
; Base position: (150.00, 1500.00)
G00 X150.00 Y1500.00
G01 X930.00 Y1500.00
G01 X1150.00 Y1716.00
G01 X1150.00 Y2700.00
G01 X370.00 Y2700.00
G01 X150.00 Y2484.00
G01 X150.00 Y1500.00
G01 X150.00 Y1500.00

; --- End Cutting ---
M05

; Return to home
G00 X0 Y0

M30

; --- End of Program ---