; ================================================
; LiSEC GFB-60/30RE Glass Cutting Program
; Generated by AI GlassCuttingProgram
; Date: 2026-04-13T09:18:40.901910
; Program: current_orders
; ================================================

; Glass type: float
; Parts count: 3

; --- Machine Initialization ---
G21
G90
G17

; --- Safety Check ---
; Verify sheet position
; Verify coolant (if required)

; --- Start Cutting ---
M03 S1000


; --- Part: ORD-001 ---
; Position: (0.00, 0.00)
; Size: 1200x800 mm
; Thickness: 4 mm
G00 X0.00 Y0.00 F80000
G01 X1200.00 Y0.00 F1000
G01 X1200.00 Y800.00
G01 X0.00 Y800.00
G01 X0.00 Y0.00

; --- Part: ORD-002 ---
; Position: (1250.00, 0.00)
; Size: 600x400 mm
; Thickness: 4 mm
G00 X1250.00 Y0.00 F80000
G01 X1850.00 Y0.00 F1000
G01 X1850.00 Y400.00
G01 X1250.00 Y400.00
G01 X1250.00 Y0.00

; --- Part: ORD-003 ---
; Position: (0.00, 850.00)
; Size: 1000x500 mm
; Thickness: 8 mm
G00 X0.00 Y850.00 F80000
G01 X1000.00 Y850.00 F1000
G01 X1000.00 Y1350.00
G01 X0.00 Y1350.00
G01 X0.00 Y850.00

; --- End Cutting ---
M05

; Return to home
G00 X0 Y0

M30

; --- End of Program ---