; ================================================
; LiSEC GFB-60/30RE Glass Cutting Program
; Generated by AI GlassCuttingProgram
; Date: 2026-04-13T09:36:57.797867
; Program: current_orders_laminated_auto_test
; ================================================

; Glass type: laminated
; Parts count: 15

; --- Machine Initialization ---
G21
G90
G17

; --- Safety Check ---
; Verify sheet position
; Verify coolant (if required)

; --- Start Cutting ---
M03 S1000


; --- Part: 10416-3-1 ---
; Position: (0.00, 0.00)
; Size: 1000x1200 mm
; Thickness: 4 mm
G00 X0.00 Y0.00 F80000

; Laminated glass sequence
; Step 1: Upper glass cut
G01 X1000.00 Y0.00 F1000
G01 X1000.00 Y1200.00
G01 X0.00 Y1200.00
G01 X0.00 Y0.00

; Step 2: Heating
G00 X500.00 Y600.00
G04 P4.0 ; Heat for 4 seconds

; Step 3: Lower glass cut
G01 X1000.00 Y0.00
G01 X1000.00 Y1200.00
G01 X0.00 Y1200.00
G01 X0.00 Y0.00

; Step 4: Break-out
G00 X500.00 Y600.00
; Apply break pressure

; --- Part: 10416-2-1 ---
; Position: (1000.00, 0.00)
; Size: 777x1200 mm
; Thickness: 4 mm
G00 X1000.00 Y0.00 F80000

; Laminated glass sequence
; Step 1: Upper glass cut
G01 X1777.00 Y0.00 F1000
G01 X1777.00 Y1200.00
G01 X1000.00 Y1200.00
G01 X1000.00 Y0.00

; Step 2: Heating
G00 X1388.50 Y600.00
G04 P4.0 ; Heat for 4 seconds

; Step 3: Lower glass cut
G01 X1777.00 Y0.00
G01 X1777.00 Y1200.00
G01 X1000.00 Y1200.00
G01 X1000.00 Y0.00

; Step 4: Break-out
G00 X1388.50 Y600.00
; Apply break pressure

; --- Part: 10416-2-3 ---
; Position: (1777.00, 0.00)
; Size: 777x1200 mm
; Thickness: 4 mm
G00 X1777.00 Y0.00 F80000

; Laminated glass sequence
; Step 1: Upper glass cut
G01 X2554.00 Y0.00 F1000
G01 X2554.00 Y1200.00
G01 X1777.00 Y1200.00
G01 X1777.00 Y0.00

; Step 2: Heating
G00 X2165.50 Y600.00
G04 P4.0 ; Heat for 4 seconds

; Step 3: Lower glass cut
G01 X2554.00 Y0.00
G01 X2554.00 Y1200.00
G01 X1777.00 Y1200.00
G01 X1777.00 Y0.00

; Step 4: Break-out
G00 X2165.50 Y600.00
; Apply break pressure

; --- Part: 10416-2-5 ---
; Position: (2554.00, 0.00)
; Size: 777x1200 mm
; Thickness: 4 mm
G00 X2554.00 Y0.00 F80000

; Laminated glass sequence
; Step 1: Upper glass cut
G01 X3331.00 Y0.00 F1000
G01 X3331.00 Y1200.00
G01 X2554.00 Y1200.00
G01 X2554.00 Y0.00

; Step 2: Heating
G00 X2942.50 Y600.00
G04 P4.0 ; Heat for 4 seconds

; Step 3: Lower glass cut
G01 X3331.00 Y0.00
G01 X3331.00 Y1200.00
G01 X2554.00 Y1200.00
G01 X2554.00 Y0.00

; Step 4: Break-out
G00 X2942.50 Y600.00
; Apply break pressure

; --- Part: LAM-TEST-ORD-005-1 ---
; Position: (3331.00, 0.00)
; Size: 1000x800 mm
; Thickness: 4 mm
G00 X3331.00 Y0.00 F80000

; Laminated glass sequence
; Step 1: Upper glass cut
G01 X4331.00 Y0.00 F1000
G01 X4331.00 Y800.00
G01 X3331.00 Y800.00
G01 X3331.00 Y0.00

; Step 2: Heating
G00 X3831.00 Y400.00
G04 P4.0 ; Heat for 4 seconds

; Step 3: Lower glass cut
G01 X4331.00 Y0.00
G01 X4331.00 Y800.00
G01 X3331.00 Y800.00
G01 X3331.00 Y0.00

; Step 4: Break-out
G00 X3831.00 Y400.00
; Apply break pressure

; --- Part: 10416-1-4 ---
; Position: (4331.00, 0.00)
; Size: 600x900 mm
; Thickness: 4 mm
G00 X4331.00 Y0.00 F80000

; Laminated glass sequence
; Step 1: Upper glass cut
G01 X4931.00 Y0.00 F1000
G01 X4931.00 Y900.00
G01 X4331.00 Y900.00
G01 X4331.00 Y0.00

; Step 2: Heating
G00 X4631.00 Y450.00
G04 P4.0 ; Heat for 4 seconds

; Step 3: Lower glass cut
G01 X4931.00 Y0.00
G01 X4931.00 Y900.00
G01 X4331.00 Y900.00
G01 X4331.00 Y0.00

; Step 4: Break-out
G00 X4631.00 Y450.00
; Apply break pressure

; --- Part: LAM-TEST-ORD-005-2 ---
; Position: (3331.00, 800.00)
; Size: 1000x800 mm
; Thickness: 4 mm
G00 X3331.00 Y800.00 F80000

; Laminated glass sequence
; Step 1: Upper glass cut
G01 X4331.00 Y800.00 F1000
G01 X4331.00 Y1600.00
G01 X3331.00 Y1600.00
G01 X3331.00 Y800.00

; Step 2: Heating
G00 X3831.00 Y1200.00
G04 P4.0 ; Heat for 4 seconds

; Step 3: Lower glass cut
G01 X4331.00 Y800.00
G01 X4331.00 Y1600.00
G01 X3331.00 Y1600.00
G01 X3331.00 Y800.00

; Step 4: Break-out
G00 X3831.00 Y1200.00
; Apply break pressure

; --- Part: 10416-1-5 ---
; Position: (4331.00, 900.00)
; Size: 600x900 mm
; Thickness: 4 mm
G00 X4331.00 Y900.00 F80000

; Laminated glass sequence
; Step 1: Upper glass cut
G01 X4931.00 Y900.00 F1000
G01 X4931.00 Y1800.00
G01 X4331.00 Y1800.00
G01 X4331.00 Y900.00

; Step 2: Heating
G00 X4631.00 Y1350.00
G04 P4.0 ; Heat for 4 seconds

; Step 3: Lower glass cut
G01 X4931.00 Y900.00
G01 X4931.00 Y1800.00
G01 X4331.00 Y1800.00
G01 X4331.00 Y900.00

; Step 4: Break-out
G00 X4631.00 Y1350.00
; Apply break pressure

; --- Part: 10416-1-6 ---
; Position: (4331.00, 1800.00)
; Size: 600x900 mm
; Thickness: 4 mm
G00 X4331.00 Y1800.00 F80000

; Laminated glass sequence
; Step 1: Upper glass cut
G01 X4931.00 Y1800.00 F1000
G01 X4931.00 Y2700.00
G01 X4331.00 Y2700.00
G01 X4331.00 Y1800.00

; Step 2: Heating
G00 X4631.00 Y2250.00
G04 P4.0 ; Heat for 4 seconds

; Step 3: Lower glass cut
G01 X4931.00 Y1800.00
G01 X4931.00 Y2700.00
G01 X4331.00 Y2700.00
G01 X4331.00 Y1800.00

; Step 4: Break-out
G00 X4631.00 Y2250.00
; Apply break pressure

; --- Part: 10416-1-3 ---
; Position: (3331.00, 1600.00)
; Size: 600x900 mm
; Thickness: 4 mm
G00 X3331.00 Y1600.00 F80000

; Laminated glass sequence
; Step 1: Upper glass cut
G01 X3931.00 Y1600.00 F1000
G01 X3931.00 Y2500.00
G01 X3331.00 Y2500.00
G01 X3331.00 Y1600.00

; Step 2: Heating
G00 X3631.00 Y2050.00
G04 P4.0 ; Heat for 4 seconds

; Step 3: Lower glass cut
G01 X3931.00 Y1600.00
G01 X3931.00 Y2500.00
G01 X3331.00 Y2500.00
G01 X3331.00 Y1600.00

; Step 4: Break-out
G00 X3631.00 Y2050.00
; Apply break pressure

; --- Part: 10416-1-2 ---
; Position: (2554.00, 2100.00)
; Size: 600x900 mm
; Thickness: 4 mm
G00 X2554.00 Y2100.00 F80000

; Laminated glass sequence
; Step 1: Upper glass cut
G01 X3154.00 Y2100.00 F1000
G01 X3154.00 Y3000.00
G01 X2554.00 Y3000.00
G01 X2554.00 Y2100.00

; Step 2: Heating
G00 X2854.00 Y2550.00
G04 P4.0 ; Heat for 4 seconds

; Step 3: Lower glass cut
G01 X3154.00 Y2100.00
G01 X3154.00 Y3000.00
G01 X2554.00 Y3000.00
G01 X2554.00 Y2100.00

; Step 4: Break-out
G00 X2854.00 Y2550.00
; Apply break pressure

; --- Part: 10416-1-1 ---
; Position: (2554.00, 1200.00)
; Size: 600x900 mm
; Thickness: 4 mm
G00 X2554.00 Y1200.00 F80000

; Laminated glass sequence
; Step 1: Upper glass cut
G01 X3154.00 Y1200.00 F1000
G01 X3154.00 Y2100.00
G01 X2554.00 Y2100.00
G01 X2554.00 Y1200.00

; Step 2: Heating
G00 X2854.00 Y1650.00
G04 P4.0 ; Heat for 4 seconds

; Step 3: Lower glass cut
G01 X3154.00 Y1200.00
G01 X3154.00 Y2100.00
G01 X2554.00 Y2100.00
G01 X2554.00 Y1200.00

; Step 4: Break-out
G00 X2854.00 Y1650.00
; Apply break pressure

; --- Part: 10416-2-4 ---
; Position: (1777.00, 1200.00)
; Size: 777x1200 mm
; Thickness: 4 mm
G00 X1777.00 Y1200.00 F80000

; Laminated glass sequence
; Step 1: Upper glass cut
G01 X2554.00 Y1200.00 F1000
G01 X2554.00 Y2400.00
G01 X1777.00 Y2400.00
G01 X1777.00 Y1200.00

; Step 2: Heating
G00 X2165.50 Y1800.00
G04 P4.0 ; Heat for 4 seconds

; Step 3: Lower glass cut
G01 X2554.00 Y1200.00
G01 X2554.00 Y2400.00
G01 X1777.00 Y2400.00
G01 X1777.00 Y1200.00

; Step 4: Break-out
G00 X2165.50 Y1800.00
; Apply break pressure

; --- Part: 10416-2-2 ---
; Position: (1000.00, 1200.00)
; Size: 777x1200 mm
; Thickness: 4 mm
G00 X1000.00 Y1200.00 F80000

; Laminated glass sequence
; Step 1: Upper glass cut
G01 X1777.00 Y1200.00 F1000
G01 X1777.00 Y2400.00
G01 X1000.00 Y2400.00
G01 X1000.00 Y1200.00

; Step 2: Heating
G00 X1388.50 Y1800.00
G04 P4.0 ; Heat for 4 seconds

; Step 3: Lower glass cut
G01 X1777.00 Y1200.00
G01 X1777.00 Y2400.00
G01 X1000.00 Y2400.00
G01 X1000.00 Y1200.00

; Step 4: Break-out
G00 X1388.50 Y1800.00
; Apply break pressure

; --- Part: 10416-3-2 ---
; Position: (0.00, 1200.00)
; Size: 1000x1200 mm
; Thickness: 4 mm
G00 X0.00 Y1200.00 F80000

; Laminated glass sequence
; Step 1: Upper glass cut
G01 X1000.00 Y1200.00 F1000
G01 X1000.00 Y2400.00
G01 X0.00 Y2400.00
G01 X0.00 Y1200.00

; Step 2: Heating
G00 X500.00 Y1800.00
G04 P4.0 ; Heat for 4 seconds

; Step 3: Lower glass cut
G01 X1000.00 Y1200.00
G01 X1000.00 Y2400.00
G01 X0.00 Y2400.00
G01 X0.00 Y1200.00

; Step 4: Break-out
G00 X500.00 Y1800.00
; Apply break pressure

; --- End Cutting ---
M05

; Return to home
G00 X0 Y0

M30

; --- End of Program ---