; LiSEC GFB-60/30RE Glass Cutting Program
; Generated by AI GlassCuttingOrchestrator
; Date: 2026-04-12T01:20:57.440632
; Sheet: 6000x3000 mm
; Parts: 52

; Machine initialization
G21 ; Metric units (mm)
G90 ; Absolute positioning
G17 ; XY plane selection

; Set cutting parameters
M03 S1000 ; Spindle/carriage start

; Begin cutting sequence

; Part 1: Order ORD-004
; Size: 300.0x400.0 mm at (0, 0)
G00 X0 Y0 F80000 ; Rapid move to start
G01 X300.0 Y0 F1000 ; Bottom edge
G01 X300.0 Y400.0 ; Right edge
G01 X0 Y400.0 ; Top edge
G01 X0 Y0 ; Left edge (complete)

; Part 8: Order ORD-004
; Size: 300.0x400.0 mm at (300.0, 0)
G00 X300.0 Y0 F80000 ; Rapid move to start
G01 X600.0 Y0 F1000 ; Bottom edge
G01 X600.0 Y400.0 ; Right edge
G01 X300.0 Y400.0 ; Top edge
G01 X300.0 Y0 ; Left edge (complete)

; Part 15: Order ORD-004
; Size: 300.0x400.0 mm at (600.0, 0)
G00 X600.0 Y0 F80000 ; Rapid move to start
G01 X900.0 Y0 F1000 ; Bottom edge
G01 X900.0 Y400.0 ; Right edge
G01 X600.0 Y400.0 ; Top edge
G01 X600.0 Y0 ; Left edge (complete)

; Part 31: Order ORD-002
; Size: 200.0x300.0 mm at (900.0, 0)
G00 X900.0 Y0 F80000 ; Rapid move to start
G01 X1100.0 Y0 F1000 ; Bottom edge
G01 X1100.0 Y300.0 ; Right edge
G01 X900.0 Y300.0 ; Top edge
G01 X900.0 Y0 ; Left edge (complete)

; Part 32: Order ORD-002
; Size: 200.0x300.0 mm at (900.0, 300.0)
G00 X900.0 Y300.0 F80000 ; Rapid move to start
G01 X1100.0 Y300.0 F1000 ; Bottom edge
G01 X1100.0 Y600.0 ; Right edge
G01 X900.0 Y600.0 ; Top edge
G01 X900.0 Y300.0 ; Left edge (complete)

; Part 18: Order ORD-002
; Size: 300.0x200.0 mm at (600.0, 400.0)
G00 X600.0 Y400.0 F80000 ; Rapid move to start
G01 X900.0 Y400.0 F1000 ; Bottom edge
G01 X900.0 Y600.0 ; Right edge
G01 X600.0 Y600.0 ; Top edge
G01 X600.0 Y400.0 ; Left edge (complete)

; Part 9: Order ORD-004
; Size: 300.0x400.0 mm at (300.0, 400.0)
G00 X300.0 Y400.0 F80000 ; Rapid move to start
G01 X600.0 Y400.0 F1000 ; Bottom edge
G01 X600.0 Y800.0 ; Right edge
G01 X300.0 Y800.0 ; Top edge
G01 X300.0 Y400.0 ; Left edge (complete)

; Part 2: Order ORD-004
; Size: 300.0x400.0 mm at (0, 400.0)
G00 X0 Y400.0 F80000 ; Rapid move to start
G01 X300.0 Y400.0 F1000 ; Bottom edge
G01 X300.0 Y800.0 ; Right edge
G01 X0 Y800.0 ; Top edge
G01 X0 Y400.0 ; Left edge (complete)

; Part 3: Order ORD-004
; Size: 300.0x400.0 mm at (0, 800.0)
G00 X0 Y800.0 F80000 ; Rapid move to start
G01 X300.0 Y800.0 F1000 ; Bottom edge
G01 X300.0 Y1200.0 ; Right edge
G01 X0 Y1200.0 ; Top edge
G01 X0 Y800.0 ; Left edge (complete)

; Part 10: Order ORD-004
; Size: 300.0x400.0 mm at (300.0, 800.0)
G00 X300.0 Y800.0 F80000 ; Rapid move to start
G01 X600.0 Y800.0 F1000 ; Bottom edge
G01 X600.0 Y1200.0 ; Right edge
G01 X300.0 Y1200.0 ; Top edge
G01 X300.0 Y800.0 ; Left edge (complete)

; Part 11: Order ORD-004
; Size: 300.0x400.0 mm at (300.0, 1200.0)
G00 X300.0 Y1200.0 F80000 ; Rapid move to start
G01 X600.0 Y1200.0 F1000 ; Bottom edge
G01 X600.0 Y1600.0 ; Right edge
G01 X300.0 Y1600.0 ; Top edge
G01 X300.0 Y1200.0 ; Left edge (complete)

; Part 4: Order ORD-004
; Size: 300.0x400.0 mm at (0, 1200.0)
G00 X0 Y1200.0 F80000 ; Rapid move to start
G01 X300.0 Y1200.0 F1000 ; Bottom edge
G01 X300.0 Y1600.0 ; Right edge
G01 X0 Y1600.0 ; Top edge
G01 X0 Y1200.0 ; Left edge (complete)

; Part 5: Order ORD-004
; Size: 300.0x400.0 mm at (0, 1600.0)
G00 X0 Y1600.0 F80000 ; Rapid move to start
G01 X300.0 Y1600.0 F1000 ; Bottom edge
G01 X300.0 Y2000.0 ; Right edge
G01 X0 Y2000.0 ; Top edge
G01 X0 Y1600.0 ; Left edge (complete)

; Part 12: Order ORD-004
; Size: 300.0x400.0 mm at (300.0, 1600.0)
G00 X300.0 Y1600.0 F80000 ; Rapid move to start
G01 X600.0 Y1600.0 F1000 ; Bottom edge
G01 X600.0 Y2000.0 ; Right edge
G01 X300.0 Y2000.0 ; Top edge
G01 X300.0 Y1600.0 ; Left edge (complete)

; Part 13: Order ORD-004
; Size: 300.0x400.0 mm at (300.0, 2000.0)
G00 X300.0 Y2000.0 F80000 ; Rapid move to start
G01 X600.0 Y2000.0 F1000 ; Bottom edge
G01 X600.0 Y2400.0 ; Right edge
G01 X300.0 Y2400.0 ; Top edge
G01 X300.0 Y2000.0 ; Left edge (complete)

; Part 6: Order ORD-004
; Size: 300.0x400.0 mm at (0, 2000.0)
G00 X0 Y2000.0 F80000 ; Rapid move to start
G01 X300.0 Y2000.0 F1000 ; Bottom edge
G01 X300.0 Y2400.0 ; Right edge
G01 X0 Y2400.0 ; Top edge
G01 X0 Y2000.0 ; Left edge (complete)

; Part 7: Order ORD-004
; Size: 300.0x400.0 mm at (0, 2400.0)
G00 X0 Y2400.0 F80000 ; Rapid move to start
G01 X300.0 Y2400.0 F1000 ; Bottom edge
G01 X300.0 Y2800.0 ; Right edge
G01 X0 Y2800.0 ; Top edge
G01 X0 Y2400.0 ; Left edge (complete)

; Part 16: Order ORD-002
; Size: 300.0x200.0 mm at (0, 2800.0)
G00 X0 Y2800.0 F80000 ; Rapid move to start
G01 X300.0 Y2800.0 F1000 ; Bottom edge
G01 X300.0 Y3000.0 ; Right edge
G01 X0 Y3000.0 ; Top edge
G01 X0 Y2800.0 ; Left edge (complete)

; Part 14: Order ORD-004
; Size: 300.0x400.0 mm at (300.0, 2400.0)
G00 X300.0 Y2400.0 F80000 ; Rapid move to start
G01 X600.0 Y2400.0 F1000 ; Bottom edge
G01 X600.0 Y2800.0 ; Right edge
G01 X300.0 Y2800.0 ; Top edge
G01 X300.0 Y2400.0 ; Left edge (complete)

; Part 17: Order ORD-002
; Size: 300.0x200.0 mm at (300.0, 2800.0)
G00 X300.0 Y2800.0 F80000 ; Rapid move to start
G01 X600.0 Y2800.0 F1000 ; Bottom edge
G01 X600.0 Y3000.0 ; Right edge
G01 X300.0 Y3000.0 ; Top edge
G01 X300.0 Y2800.0 ; Left edge (complete)

; Part 30: Order ORD-002
; Size: 300.0x200.0 mm at (600.0, 2800.0)
G00 X600.0 Y2800.0 F80000 ; Rapid move to start
G01 X900.0 Y2800.0 F1000 ; Bottom edge
G01 X900.0 Y3000.0 ; Right edge
G01 X600.0 Y3000.0 ; Top edge
G01 X600.0 Y2800.0 ; Left edge (complete)

; Part 29: Order ORD-002
; Size: 300.0x200.0 mm at (600.0, 2600.0)
G00 X600.0 Y2600.0 F80000 ; Rapid move to start
G01 X900.0 Y2600.0 F1000 ; Bottom edge
G01 X900.0 Y2800.0 ; Right edge
G01 X600.0 Y2800.0 ; Top edge
G01 X600.0 Y2600.0 ; Left edge (complete)

; Part 28: Order ORD-002
; Size: 300.0x200.0 mm at (600.0, 2400.0)
G00 X600.0 Y2400.0 F80000 ; Rapid move to start
G01 X900.0 Y2400.0 F1000 ; Bottom edge
G01 X900.0 Y2600.0 ; Right edge
G01 X600.0 Y2600.0 ; Top edge
G01 X600.0 Y2400.0 ; Left edge (complete)

; Part 27: Order ORD-002
; Size: 300.0x200.0 mm at (600.0, 2200.0)
G00 X600.0 Y2200.0 F80000 ; Rapid move to start
G01 X900.0 Y2200.0 F1000 ; Bottom edge
G01 X900.0 Y2400.0 ; Right edge
G01 X600.0 Y2400.0 ; Top edge
G01 X600.0 Y2200.0 ; Left edge (complete)

; Part 26: Order ORD-002
; Size: 300.0x200.0 mm at (600.0, 2000.0)
G00 X600.0 Y2000.0 F80000 ; Rapid move to start
G01 X900.0 Y2000.0 F1000 ; Bottom edge
G01 X900.0 Y2200.0 ; Right edge
G01 X600.0 Y2200.0 ; Top edge
G01 X600.0 Y2000.0 ; Left edge (complete)

; Part 25: Order ORD-002
; Size: 300.0x200.0 mm at (600.0, 1800.0)
G00 X600.0 Y1800.0 F80000 ; Rapid move to start
G01 X900.0 Y1800.0 F1000 ; Bottom edge
G01 X900.0 Y2000.0 ; Right edge
G01 X600.0 Y2000.0 ; Top edge
G01 X600.0 Y1800.0 ; Left edge (complete)

; Part 24: Order ORD-002
; Size: 300.0x200.0 mm at (600.0, 1600.0)
G00 X600.0 Y1600.0 F80000 ; Rapid move to start
G01 X900.0 Y1600.0 F1000 ; Bottom edge
G01 X900.0 Y1800.0 ; Right edge
G01 X600.0 Y1800.0 ; Top edge
G01 X600.0 Y1600.0 ; Left edge (complete)

; Part 23: Order ORD-002
; Size: 300.0x200.0 mm at (600.0, 1400.0)
G00 X600.0 Y1400.0 F80000 ; Rapid move to start
G01 X900.0 Y1400.0 F1000 ; Bottom edge
G01 X900.0 Y1600.0 ; Right edge
G01 X600.0 Y1600.0 ; Top edge
G01 X600.0 Y1400.0 ; Left edge (complete)

; Part 22: Order ORD-002
; Size: 300.0x200.0 mm at (600.0, 1200.0)
G00 X600.0 Y1200.0 F80000 ; Rapid move to start
G01 X900.0 Y1200.0 F1000 ; Bottom edge
G01 X900.0 Y1400.0 ; Right edge
G01 X600.0 Y1400.0 ; Top edge
G01 X600.0 Y1200.0 ; Left edge (complete)

; Part 21: Order ORD-002
; Size: 300.0x200.0 mm at (600.0, 1000.0)
G00 X600.0 Y1000.0 F80000 ; Rapid move to start
G01 X900.0 Y1000.0 F1000 ; Bottom edge
G01 X900.0 Y1200.0 ; Right edge
G01 X600.0 Y1200.0 ; Top edge
G01 X600.0 Y1000.0 ; Left edge (complete)

; Part 20: Order ORD-002
; Size: 300.0x200.0 mm at (600.0, 800.0)
G00 X600.0 Y800.0 F80000 ; Rapid move to start
G01 X900.0 Y800.0 F1000 ; Bottom edge
G01 X900.0 Y1000.0 ; Right edge
G01 X600.0 Y1000.0 ; Top edge
G01 X600.0 Y800.0 ; Left edge (complete)

; Part 19: Order ORD-002
; Size: 300.0x200.0 mm at (600.0, 600.0)
G00 X600.0 Y600.0 F80000 ; Rapid move to start
G01 X900.0 Y600.0 F1000 ; Bottom edge
G01 X900.0 Y800.0 ; Right edge
G01 X600.0 Y800.0 ; Top edge
G01 X600.0 Y600.0 ; Left edge (complete)

; Part 33: Order ORD-002
; Size: 200.0x300.0 mm at (900.0, 600.0)
G00 X900.0 Y600.0 F80000 ; Rapid move to start
G01 X1100.0 Y600.0 F1000 ; Bottom edge
G01 X1100.0 Y900.0 ; Right edge
G01 X900.0 Y900.0 ; Top edge
G01 X900.0 Y600.0 ; Left edge (complete)

; Part 34: Order ORD-002
; Size: 200.0x300.0 mm at (900.0, 900.0)
G00 X900.0 Y900.0 F80000 ; Rapid move to start
G01 X1100.0 Y900.0 F1000 ; Bottom edge
G01 X1100.0 Y1200.0 ; Right edge
G01 X900.0 Y1200.0 ; Top edge
G01 X900.0 Y900.0 ; Left edge (complete)

; Part 35: Order ORD-002
; Size: 200.0x300.0 mm at (900.0, 1200.0)
G00 X900.0 Y1200.0 F80000 ; Rapid move to start
G01 X1100.0 Y1200.0 F1000 ; Bottom edge
G01 X1100.0 Y1500.0 ; Right edge
G01 X900.0 Y1500.0 ; Top edge
G01 X900.0 Y1200.0 ; Left edge (complete)

; Part 38: Order ORD-001
; Size: 400.0x500.0 mm at (1100.0, 1000.0)
G00 X1100.0 Y1000.0 F80000 ; Rapid move to start
G01 X1500.0 Y1000.0 F1000 ; Bottom edge
G01 X1500.0 Y1500.0 ; Right edge
G01 X1100.0 Y1500.0 ; Top edge
G01 X1100.0 Y1000.0 ; Left edge (complete)

; Part 44: Order ORD-001
; Size: 400.0x500.0 mm at (1500.0, 1000.0)
G00 X1500.0 Y1000.0 F80000 ; Rapid move to start
G01 X1900.0 Y1000.0 F1000 ; Bottom edge
G01 X1900.0 Y1500.0 ; Right edge
G01 X1500.0 Y1500.0 ; Top edge
G01 X1500.0 Y1000.0 ; Left edge (complete)

; Part 43: Order ORD-001
; Size: 400.0x500.0 mm at (1500.0, 500.0)
G00 X1500.0 Y500.0 F80000 ; Rapid move to start
G01 X1900.0 Y500.0 F1000 ; Bottom edge
G01 X1900.0 Y1000.0 ; Right edge
G01 X1500.0 Y1000.0 ; Top edge
G01 X1500.0 Y500.0 ; Left edge (complete)

; Part 37: Order ORD-001
; Size: 400.0x500.0 mm at (1100.0, 500.0)
G00 X1100.0 Y500.0 F80000 ; Rapid move to start
G01 X1500.0 Y500.0 F1000 ; Bottom edge
G01 X1500.0 Y1000.0 ; Right edge
G01 X1100.0 Y1000.0 ; Top edge
G01 X1100.0 Y500.0 ; Left edge (complete)

; Part 36: Order ORD-001
; Size: 400.0x500.0 mm at (1100.0, 0)
G00 X1100.0 Y0 F80000 ; Rapid move to start
G01 X1500.0 Y0 F1000 ; Bottom edge
G01 X1500.0 Y500.0 ; Right edge
G01 X1100.0 Y500.0 ; Top edge
G01 X1100.0 Y0 ; Left edge (complete)

; Part 42: Order ORD-001
; Size: 400.0x500.0 mm at (1500.0, 0)
G00 X1500.0 Y0 F80000 ; Rapid move to start
G01 X1900.0 Y0 F1000 ; Bottom edge
G01 X1900.0 Y500.0 ; Right edge
G01 X1500.0 Y500.0 ; Top edge
G01 X1500.0 Y0 ; Left edge (complete)

; Part 46: Order ORD-003
; Size: 600.0x800.0 mm at (1900.0, 0)
G00 X1900.0 Y0 F80000 ; Rapid move to start
G01 X2500.0 Y0 F1000 ; Bottom edge
G01 X2500.0 Y800.0 ; Right edge
G01 X1900.0 Y800.0 ; Top edge
G01 X1900.0 Y0 ; Left edge (complete)

; Part 49: Order ORD-003
; Size: 600.0x800.0 mm at (2500.0, 0)
G00 X2500.0 Y0 F80000 ; Rapid move to start
G01 X3100.0 Y0 F1000 ; Bottom edge
G01 X3100.0 Y800.0 ; Right edge
G01 X2500.0 Y800.0 ; Top edge
G01 X2500.0 Y0 ; Left edge (complete)

; Part 50: Order ORD-003
; Size: 600.0x800.0 mm at (2500.0, 800.0)
G00 X2500.0 Y800.0 F80000 ; Rapid move to start
G01 X3100.0 Y800.0 F1000 ; Bottom edge
G01 X3100.0 Y1600.0 ; Right edge
G01 X2500.0 Y1600.0 ; Top edge
G01 X2500.0 Y800.0 ; Left edge (complete)

; Part 47: Order ORD-003
; Size: 600.0x800.0 mm at (1900.0, 800.0)
G00 X1900.0 Y800.0 F80000 ; Rapid move to start
G01 X2500.0 Y800.0 F1000 ; Bottom edge
G01 X2500.0 Y1600.0 ; Right edge
G01 X1900.0 Y1600.0 ; Top edge
G01 X1900.0 Y800.0 ; Left edge (complete)

; Part 45: Order ORD-001
; Size: 400.0x500.0 mm at (1500.0, 1500.0)
G00 X1500.0 Y1500.0 F80000 ; Rapid move to start
G01 X1900.0 Y1500.0 F1000 ; Bottom edge
G01 X1900.0 Y2000.0 ; Right edge
G01 X1500.0 Y2000.0 ; Top edge
G01 X1500.0 Y1500.0 ; Left edge (complete)

; Part 39: Order ORD-001
; Size: 400.0x500.0 mm at (1100.0, 1500.0)
G00 X1100.0 Y1500.0 F80000 ; Rapid move to start
G01 X1500.0 Y1500.0 F1000 ; Bottom edge
G01 X1500.0 Y2000.0 ; Right edge
G01 X1100.0 Y2000.0 ; Top edge
G01 X1100.0 Y1500.0 ; Left edge (complete)

; Part 40: Order ORD-001
; Size: 400.0x500.0 mm at (1100.0, 2000.0)
G00 X1100.0 Y2000.0 F80000 ; Rapid move to start
G01 X1500.0 Y2000.0 F1000 ; Bottom edge
G01 X1500.0 Y2500.0 ; Right edge
G01 X1100.0 Y2500.0 ; Top edge
G01 X1100.0 Y2000.0 ; Left edge (complete)

; Part 41: Order ORD-001
; Size: 400.0x500.0 mm at (1100.0, 2500.0)
G00 X1100.0 Y2500.0 F80000 ; Rapid move to start
G01 X1500.0 Y2500.0 F1000 ; Bottom edge
G01 X1500.0 Y3000.0 ; Right edge
G01 X1100.0 Y3000.0 ; Top edge
G01 X1100.0 Y2500.0 ; Left edge (complete)

; Part 48: Order ORD-003
; Size: 600.0x800.0 mm at (1900.0, 1600.0)
G00 X1900.0 Y1600.0 F80000 ; Rapid move to start
G01 X2500.0 Y1600.0 F1000 ; Bottom edge
G01 X2500.0 Y2400.0 ; Right edge
G01 X1900.0 Y2400.0 ; Top edge
G01 X1900.0 Y1600.0 ; Left edge (complete)

; Part 52: Order ORD-005
; Size: 1000.0x800.0 mm at (3100.0, 800.0)
G00 X3100.0 Y800.0 F80000 ; Rapid move to start
G01 X4100.0 Y800.0 F1000 ; Bottom edge
G01 X4100.0 Y1600.0 ; Right edge
G01 X3100.0 Y1600.0 ; Top edge
G01 X3100.0 Y800.0 ; Left edge (complete)

; Part 51: Order ORD-005
; Size: 1000.0x800.0 mm at (3100.0, 0)
G00 X3100.0 Y0 F80000 ; Rapid move to start
G01 X4100.0 Y0 F1000 ; Bottom edge
G01 X4100.0 Y800.0 ; Right edge
G01 X3100.0 Y800.0 ; Top edge
G01 X3100.0 Y0 ; Left edge (complete)

; End program
M05 ; Spindle stop
G00 X0 Y0 ; Return home
M30 ; Program end