; LiSEC GFB-60/30RE Glass Cutting Program
; Generated by AI GlassCuttingOrchestrator
; Date: 2026-04-11T11:28:19.429730
; Sheet: 6000x3000 mm
; Parts: 35

; Machine initialization
G21 ; Metric units (mm)
G90 ; Absolute positioning
G17 ; XY plane selection

; Set cutting parameters
M03 S1000 ; Spindle/carriage start

; Begin cutting sequence

; Part 1: Order ORD-002
; Size: 200x300 mm at (0, 0)
G00 X0 Y0 F80000 ; Rapid move to start
G01 X200 Y0 F1000 ; Bottom edge
G01 X200 Y300 ; Right edge
G01 X0 Y300 ; Top edge
G01 X0 Y0 ; Left edge (complete)

; Part 11: Order ORD-002
; Size: 200x300 mm at (200, 0)
G00 X200 Y0 F80000 ; Rapid move to start
G01 X400 Y0 F1000 ; Bottom edge
G01 X400 Y300 ; Right edge
G01 X200 Y300 ; Top edge
G01 X200 Y0 ; Left edge (complete)

; Part 12: Order ORD-002
; Size: 200x300 mm at (200, 300)
G00 X200 Y300 F80000 ; Rapid move to start
G01 X400 Y300 F1000 ; Bottom edge
G01 X400 Y600 ; Right edge
G01 X200 Y600 ; Top edge
G01 X200 Y300 ; Left edge (complete)

; Part 2: Order ORD-002
; Size: 200x300 mm at (0, 300)
G00 X0 Y300 F80000 ; Rapid move to start
G01 X200 Y300 F1000 ; Bottom edge
G01 X200 Y600 ; Right edge
G01 X0 Y600 ; Top edge
G01 X0 Y300 ; Left edge (complete)

; Part 3: Order ORD-002
; Size: 200x300 mm at (0, 600)
G00 X0 Y600 F80000 ; Rapid move to start
G01 X200 Y600 F1000 ; Bottom edge
G01 X200 Y900 ; Right edge
G01 X0 Y900 ; Top edge
G01 X0 Y600 ; Left edge (complete)

; Part 13: Order ORD-002
; Size: 200x300 mm at (200, 600)
G00 X200 Y600 F80000 ; Rapid move to start
G01 X400 Y600 F1000 ; Bottom edge
G01 X400 Y900 ; Right edge
G01 X200 Y900 ; Top edge
G01 X200 Y600 ; Left edge (complete)

; Part 14: Order ORD-002
; Size: 200x300 mm at (200, 900)
G00 X200 Y900 F80000 ; Rapid move to start
G01 X400 Y900 F1000 ; Bottom edge
G01 X400 Y1200 ; Right edge
G01 X200 Y1200 ; Top edge
G01 X200 Y900 ; Left edge (complete)

; Part 4: Order ORD-002
; Size: 200x300 mm at (0, 900)
G00 X0 Y900 F80000 ; Rapid move to start
G01 X200 Y900 F1000 ; Bottom edge
G01 X200 Y1200 ; Right edge
G01 X0 Y1200 ; Top edge
G01 X0 Y900 ; Left edge (complete)

; Part 5: Order ORD-002
; Size: 200x300 mm at (0, 1200)
G00 X0 Y1200 F80000 ; Rapid move to start
G01 X200 Y1200 F1000 ; Bottom edge
G01 X200 Y1500 ; Right edge
G01 X0 Y1500 ; Top edge
G01 X0 Y1200 ; Left edge (complete)

; Part 15: Order ORD-002
; Size: 200x300 mm at (200, 1200)
G00 X200 Y1200 F80000 ; Rapid move to start
G01 X400 Y1200 F1000 ; Bottom edge
G01 X400 Y1500 ; Right edge
G01 X200 Y1500 ; Top edge
G01 X200 Y1200 ; Left edge (complete)

; Part 16: Order ORD-002
; Size: 200x300 mm at (200, 1500)
G00 X200 Y1500 F80000 ; Rapid move to start
G01 X400 Y1500 F1000 ; Bottom edge
G01 X400 Y1800 ; Right edge
G01 X200 Y1800 ; Top edge
G01 X200 Y1500 ; Left edge (complete)

; Part 6: Order ORD-002
; Size: 200x300 mm at (0, 1500)
G00 X0 Y1500 F80000 ; Rapid move to start
G01 X200 Y1500 F1000 ; Bottom edge
G01 X200 Y1800 ; Right edge
G01 X0 Y1800 ; Top edge
G01 X0 Y1500 ; Left edge (complete)

; Part 7: Order ORD-002
; Size: 200x300 mm at (0, 1800)
G00 X0 Y1800 F80000 ; Rapid move to start
G01 X200 Y1800 F1000 ; Bottom edge
G01 X200 Y2100 ; Right edge
G01 X0 Y2100 ; Top edge
G01 X0 Y1800 ; Left edge (complete)

; Part 17: Order ORD-002
; Size: 200x300 mm at (200, 1800)
G00 X200 Y1800 F80000 ; Rapid move to start
G01 X400 Y1800 F1000 ; Bottom edge
G01 X400 Y2100 ; Right edge
G01 X200 Y2100 ; Top edge
G01 X200 Y1800 ; Left edge (complete)

; Part 18: Order ORD-002
; Size: 200x300 mm at (200, 2100)
G00 X200 Y2100 F80000 ; Rapid move to start
G01 X400 Y2100 F1000 ; Bottom edge
G01 X400 Y2400 ; Right edge
G01 X200 Y2400 ; Top edge
G01 X200 Y2100 ; Left edge (complete)

; Part 8: Order ORD-002
; Size: 200x300 mm at (0, 2100)
G00 X0 Y2100 F80000 ; Rapid move to start
G01 X200 Y2100 F1000 ; Bottom edge
G01 X200 Y2400 ; Right edge
G01 X0 Y2400 ; Top edge
G01 X0 Y2100 ; Left edge (complete)

; Part 9: Order ORD-002
; Size: 200x300 mm at (0, 2400)
G00 X0 Y2400 F80000 ; Rapid move to start
G01 X200 Y2400 F1000 ; Bottom edge
G01 X200 Y2700 ; Right edge
G01 X0 Y2700 ; Top edge
G01 X0 Y2400 ; Left edge (complete)

; Part 10: Order ORD-002
; Size: 200x300 mm at (0, 2700)
G00 X0 Y2700 F80000 ; Rapid move to start
G01 X200 Y2700 F1000 ; Bottom edge
G01 X200 Y3000 ; Right edge
G01 X0 Y3000 ; Top edge
G01 X0 Y2700 ; Left edge (complete)

; Part 20: Order ORD-002
; Size: 200x300 mm at (200, 2700)
G00 X200 Y2700 F80000 ; Rapid move to start
G01 X400 Y2700 F1000 ; Bottom edge
G01 X400 Y3000 ; Right edge
G01 X200 Y3000 ; Top edge
G01 X200 Y2700 ; Left edge (complete)

; Part 26: Order ORD-001
; Size: 400x500 mm at (400, 2500)
G00 X400 Y2500 F80000 ; Rapid move to start
G01 X800 Y2500 F1000 ; Bottom edge
G01 X800 Y3000 ; Right edge
G01 X400 Y3000 ; Top edge
G01 X400 Y2500 ; Left edge (complete)

; Part 19: Order ORD-002
; Size: 200x300 mm at (200, 2400)
G00 X200 Y2400 F80000 ; Rapid move to start
G01 X400 Y2400 F1000 ; Bottom edge
G01 X400 Y2700 ; Right edge
G01 X200 Y2700 ; Top edge
G01 X200 Y2400 ; Left edge (complete)

; Part 25: Order ORD-001
; Size: 400x500 mm at (400, 2000)
G00 X400 Y2000 F80000 ; Rapid move to start
G01 X800 Y2000 F1000 ; Bottom edge
G01 X800 Y2500 ; Right edge
G01 X400 Y2500 ; Top edge
G01 X400 Y2000 ; Left edge (complete)

; Part 24: Order ORD-001
; Size: 400x500 mm at (400, 1500)
G00 X400 Y1500 F80000 ; Rapid move to start
G01 X800 Y1500 F1000 ; Bottom edge
G01 X800 Y2000 ; Right edge
G01 X400 Y2000 ; Top edge
G01 X400 Y1500 ; Left edge (complete)

; Part 30: Order ORD-001
; Size: 400x500 mm at (800, 1500)
G00 X800 Y1500 F80000 ; Rapid move to start
G01 X1200 Y1500 F1000 ; Bottom edge
G01 X1200 Y2000 ; Right edge
G01 X800 Y2000 ; Top edge
G01 X800 Y1500 ; Left edge (complete)

; Part 29: Order ORD-001
; Size: 400x500 mm at (800, 1000)
G00 X800 Y1000 F80000 ; Rapid move to start
G01 X1200 Y1000 F1000 ; Bottom edge
G01 X1200 Y1500 ; Right edge
G01 X800 Y1500 ; Top edge
G01 X800 Y1000 ; Left edge (complete)

; Part 23: Order ORD-001
; Size: 400x500 mm at (400, 1000)
G00 X400 Y1000 F80000 ; Rapid move to start
G01 X800 Y1000 F1000 ; Bottom edge
G01 X800 Y1500 ; Right edge
G01 X400 Y1500 ; Top edge
G01 X400 Y1000 ; Left edge (complete)

; Part 22: Order ORD-001
; Size: 400x500 mm at (400, 500)
G00 X400 Y500 F80000 ; Rapid move to start
G01 X800 Y500 F1000 ; Bottom edge
G01 X800 Y1000 ; Right edge
G01 X400 Y1000 ; Top edge
G01 X400 Y500 ; Left edge (complete)

; Part 21: Order ORD-001
; Size: 400x500 mm at (400, 0)
G00 X400 Y0 F80000 ; Rapid move to start
G01 X800 Y0 F1000 ; Bottom edge
G01 X800 Y500 ; Right edge
G01 X400 Y500 ; Top edge
G01 X400 Y0 ; Left edge (complete)

; Part 27: Order ORD-001
; Size: 400x500 mm at (800, 0)
G00 X800 Y0 F80000 ; Rapid move to start
G01 X1200 Y0 F1000 ; Bottom edge
G01 X1200 Y500 ; Right edge
G01 X800 Y500 ; Top edge
G01 X800 Y0 ; Left edge (complete)

; Part 28: Order ORD-001
; Size: 400x500 mm at (800, 500)
G00 X800 Y500 F80000 ; Rapid move to start
G01 X1200 Y500 F1000 ; Bottom edge
G01 X1200 Y1000 ; Right edge
G01 X800 Y1000 ; Top edge
G01 X800 Y500 ; Left edge (complete)

; Part 31: Order ORD-003
; Size: 600x800 mm at (1200, 0)
G00 X1200 Y0 F80000 ; Rapid move to start
G01 X1800 Y0 F1000 ; Bottom edge
G01 X1800 Y800 ; Right edge
G01 X1200 Y800 ; Top edge
G01 X1200 Y0 ; Left edge (complete)

; Part 34: Order ORD-003
; Size: 600x800 mm at (1800, 0)
G00 X1800 Y0 F80000 ; Rapid move to start
G01 X2400 Y0 F1000 ; Bottom edge
G01 X2400 Y800 ; Right edge
G01 X1800 Y800 ; Top edge
G01 X1800 Y0 ; Left edge (complete)

; Part 35: Order ORD-003
; Size: 600x800 mm at (1800, 800)
G00 X1800 Y800 F80000 ; Rapid move to start
G01 X2400 Y800 F1000 ; Bottom edge
G01 X2400 Y1600 ; Right edge
G01 X1800 Y1600 ; Top edge
G01 X1800 Y800 ; Left edge (complete)

; Part 32: Order ORD-003
; Size: 600x800 mm at (1200, 800)
G00 X1200 Y800 F80000 ; Rapid move to start
G01 X1800 Y800 F1000 ; Bottom edge
G01 X1800 Y1600 ; Right edge
G01 X1200 Y1600 ; Top edge
G01 X1200 Y800 ; Left edge (complete)

; Part 33: Order ORD-003
; Size: 600x800 mm at (1200, 1600)
G00 X1200 Y1600 F80000 ; Rapid move to start
G01 X1800 Y1600 F1000 ; Bottom edge
G01 X1800 Y2400 ; Right edge
G01 X1200 Y2400 ; Top edge
G01 X1200 Y1600 ; Left edge (complete)

; End program
M05 ; Spindle stop
G00 X0 Y0 ; Return home
M30 ; Program end