; ================================================
; LiSEC GFB-60/30RE Glass Cutting Program
; Generated by AI GlassCuttingProgram
; Date: 2026-04-13T09:46:18.494166
; Program: herofis_lam_blade_e2e
; ================================================

; Glass type: laminated
; Parts count: 2

; --- Machine Initialization ---
G21
G90
G17

; --- Safety Check ---
; Verify sheet position
; Verify coolant (if required)

; --- Start Cutting ---
M03 S1000


; --- Part: HERO-LAM-BLADE-001-1-1 ---
; Position: (0.00, 0.00)
; Size: 800x1000 mm
; Thickness: 4 mm
G00 X0.00 Y0.00 F80000

; Laminated glass sequence
; Step 1: Upper glass cut
G01 X800.00 Y0.00 F1000
G01 X800.00 Y1000.00
G01 X0.00 Y1000.00
G01 X0.00 Y0.00

; Step 2: Heating
G00 X400.00 Y500.00
G04 P4.0 ; Heat for 4 seconds

; Step 3: Lower glass cut
G01 X800.00 Y0.00
G01 X800.00 Y1000.00
G01 X0.00 Y1000.00
G01 X0.00 Y0.00

; Step 4: Break-out
G00 X400.00 Y500.00
; Apply break pressure

; --- Part: HERO-LAM-BLADE-001-1-2 ---
; Position: (0.00, 1000.00)
; Size: 800x1000 mm
; Thickness: 4 mm
G00 X0.00 Y1000.00 F80000

; Laminated glass sequence
; Step 1: Upper glass cut
G01 X800.00 Y1000.00 F1000
G01 X800.00 Y2000.00
G01 X0.00 Y2000.00
G01 X0.00 Y1000.00

; Step 2: Heating
G00 X400.00 Y1500.00
G04 P4.0 ; Heat for 4 seconds

; Step 3: Lower glass cut
G01 X800.00 Y1000.00
G01 X800.00 Y2000.00
G01 X0.00 Y2000.00
G01 X0.00 Y1000.00

; Step 4: Break-out
G00 X400.00 Y1500.00
; Apply break pressure

; --- End Cutting ---
M05

; Return to home
G00 X0 Y0

M30

; --- End of Program ---