; ================================================
; LiSEC GFB-60/30RE Glass Cutting Program
; Generated by AI GlassCuttingProgram
; Date: 2026-04-13T09:42:41.200398
; Program: laminated_blade_delete_demo
; ================================================

; Glass type: laminated
; Parts count: 1

; --- Machine Initialization ---
G21
G90
G17

; --- Safety Check ---
; Verify sheet position
; Verify coolant (if required)

; --- Start Cutting ---
M03 S1000


; --- Part: LAM-BLADE-001 ---
; Position: (600.00, 450.00)
; Size: 1000x800 mm
; Thickness: 8.0 mm
G00 X600.00 Y450.00 F80000

; Blade delete sequence
; Step BD1: Move to wiping pad
G00 X520.00 Y390.00 F80000
M10
G04 P1.5 ; Blade wipe contact
M11
; Step BD2: Return to cut start
G00 X600.00 Y450.00 F80000

; Laminated glass sequence
; Step 1: Upper glass cut
G01 X1600.00 Y450.00 F1000
G01 X1600.00 Y1250.00
G01 X600.00 Y1250.00
G01 X600.00 Y450.00

; Step 2: Heating
G00 X1100.00 Y850.00
G04 P4.0 ; Heat for 4 seconds

; Step 3: Lower glass cut
G01 X1600.00 Y450.00
G01 X1600.00 Y1250.00
G01 X600.00 Y1250.00
G01 X600.00 Y450.00

; Step 4: Break-out
G00 X1100.00 Y850.00
; Apply break pressure

; --- End Cutting ---
M05

; Return to home
G00 X0 Y0

M30

; --- End of Program ---