; ================================================
; LiSEC GFB-60/30RE Glass Cutting Program
; Generated by AI GlassCuttingProgram
; Date: 2026-04-13T09:49:46.085943
; Program: live_10414_e2e
; ================================================

; Glass type: float
; Parts count: 5

; --- Machine Initialization ---
G21
G90
G17

; --- Safety Check ---
; Verify sheet position
; Verify coolant (if required)

; --- Start Cutting ---
M03 S1000


; --- Part: 10414-4-1 ---
; Position: (0.00, 0.00)
; Size: 856x1996 mm
; Thickness: 4.0 mm
G00 X0.00 Y0.00 F80000
G01 X856.00 Y0.00 F1000
G01 X856.00 Y1996.00
G01 X0.00 Y1996.00
G01 X0.00 Y0.00

; --- Part: 10414-5-1 ---
; Position: (856.00, 0.00)
; Size: 810x1010 mm
; Thickness: 4.0 mm
G00 X856.00 Y0.00 F80000
G01 X1666.00 Y0.00 F1000
G01 X1666.00 Y1010.00
G01 X856.00 Y1010.00
G01 X856.00 Y0.00

; --- Part: 10414-2-1 ---
; Position: (1666.00, 0.00)
; Size: 603x1022 mm
; Thickness: 4.0 mm
G00 X1666.00 Y0.00 F80000
G01 X2269.00 Y0.00 F1000
G01 X2269.00 Y1022.00
G01 X1666.00 Y1022.00
G01 X1666.00 Y0.00

; --- Part: 10414-3-1 ---
; Position: (856.00, 1010.00)
; Size: 724x912 mm
; Thickness: 4.0 mm
G00 X856.00 Y1010.00 F80000
G01 X1580.00 Y1010.00 F1000
G01 X1580.00 Y1922.00
G01 X856.00 Y1922.00
G01 X856.00 Y1010.00

; --- Part: 10414-1-1 ---
; Position: (856.00, 1922.00)
; Size: 603x1022 mm
; Thickness: 4.0 mm
G00 X856.00 Y1922.00 F80000
G01 X1459.00 Y1922.00 F1000
G01 X1459.00 Y2944.00
G01 X856.00 Y2944.00
G01 X856.00 Y1922.00

; --- End Cutting ---
M05

; Return to home
G00 X0 Y0

M30

; --- End of Program ---