; ================================================
; LiSEC GFB-60/30RE Glass Cutting Program
; Generated by AI GlassCuttingProgram
; Date: 2026-04-11T14:39:45.034432
; Program: offline_cut
; ================================================

; Glass type: float
; Parts count: 52

; --- Machine Initialization ---
G21
G90
G17

; --- Safety Check ---
; Verify sheet position
; Verify coolant (if required)

; --- Start Cutting ---
M03 S1000


; --- Part: ORD-005-0 ---
; Position: (0.00, 0.00)
; Size: 1000x800 mm
; Thickness: 4 mm
G00 X0.00 Y0.00 F80000
G01 X1000.00 Y0.00 F1000
G01 X1000.00 Y800.00
G01 X0.00 Y800.00
G01 X0.00 Y0.00

; --- Part: ORD-005-1 ---
; Position: (0.00, 800.00)
; Size: 1000x800 mm
; Thickness: 4 mm
G00 X0.00 Y800.00 F80000
G01 X1000.00 Y800.00 F1000
G01 X1000.00 Y1600.00
G01 X0.00 Y1600.00
G01 X0.00 Y800.00

; --- Part: ORD-003-0 ---
; Position: (0.00, 1600.00)
; Size: 800x600 mm
; Thickness: 4 mm
G00 X0.00 Y1600.00 F80000
G01 X800.00 Y1600.00 F1000
G01 X800.00 Y2200.00
G01 X0.00 Y2200.00
G01 X0.00 Y1600.00

; --- Part: ORD-003-1 ---
; Position: (0.00, 2200.00)
; Size: 800x600 mm
; Thickness: 4 mm
G00 X0.00 Y2200.00 F80000
G01 X800.00 Y2200.00 F1000
G01 X800.00 Y2800.00
G01 X0.00 Y2800.00
G01 X0.00 Y2200.00

; --- Part: ORD-002-0 ---
; Position: (0.00, 2800.00)
; Size: 300x200 mm
; Thickness: 4 mm
G00 X0.00 Y2800.00 F80000
G01 X300.00 Y2800.00 F1000
G01 X300.00 Y3000.00
G01 X0.00 Y3000.00
G01 X0.00 Y2800.00

; --- Part: ORD-002-2 ---
; Position: (300.00, 2800.00)
; Size: 300x200 mm
; Thickness: 4 mm
G00 X300.00 Y2800.00 F80000
G01 X600.00 Y2800.00 F1000
G01 X600.00 Y3000.00
G01 X300.00 Y3000.00
G01 X300.00 Y2800.00

; --- Part: ORD-001-1 ---
; Position: (800.00, 2600.00)
; Size: 500x400 mm
; Thickness: 4 mm
G00 X800.00 Y2600.00 F80000
G01 X1300.00 Y2600.00 F1000
G01 X1300.00 Y3000.00
G01 X800.00 Y3000.00
G01 X800.00 Y2600.00

; --- Part: ORD-004-2 ---
; Position: (1300.00, 2600.00)
; Size: 300x400 mm
; Thickness: 4 mm
G00 X1300.00 Y2600.00 F80000
G01 X1600.00 Y2600.00 F1000
G01 X1600.00 Y3000.00
G01 X1300.00 Y3000.00
G01 X1300.00 Y2600.00

; --- Part: ORD-001-7 ---
; Position: (1600.00, 2500.00)
; Size: 400x500 mm
; Thickness: 4 mm
G00 X1600.00 Y2500.00 F80000
G01 X2000.00 Y2500.00 F1000
G01 X2000.00 Y3000.00
G01 X1600.00 Y3000.00
G01 X1600.00 Y2500.00

; --- Part: ORD-001-0 ---
; Position: (800.00, 2200.00)
; Size: 500x400 mm
; Thickness: 4 mm
G00 X800.00 Y2200.00 F80000
G01 X1300.00 Y2200.00 F1000
G01 X1300.00 Y2600.00
G01 X800.00 Y2600.00
G01 X800.00 Y2200.00

; --- Part: ORD-004-0 ---
; Position: (1300.00, 2200.00)
; Size: 300x400 mm
; Thickness: 4 mm
G00 X1300.00 Y2200.00 F80000
G01 X1600.00 Y2200.00 F1000
G01 X1600.00 Y2600.00
G01 X1300.00 Y2600.00
G01 X1300.00 Y2200.00

; --- Part: ORD-001-6 ---
; Position: (1600.00, 2000.00)
; Size: 400x500 mm
; Thickness: 4 mm
G00 X1600.00 Y2000.00 F80000
G01 X2000.00 Y2000.00 F1000
G01 X2000.00 Y2500.00
G01 X1600.00 Y2500.00
G01 X1600.00 Y2000.00

; --- Part: ORD-004-5 ---
; Position: (2000.00, 1900.00)
; Size: 400x300 mm
; Thickness: 4 mm
G00 X2000.00 Y1900.00 F80000
G01 X2400.00 Y1900.00 F1000
G01 X2400.00 Y2200.00
G01 X2000.00 Y2200.00
G01 X2000.00 Y1900.00

; --- Part: ORD-004-6 ---
; Position: (2000.00, 2200.00)
; Size: 400x300 mm
; Thickness: 4 mm
G00 X2000.00 Y2200.00 F80000
G01 X2400.00 Y2200.00 F1000
G01 X2400.00 Y2500.00
G01 X2000.00 Y2500.00
G01 X2000.00 Y2200.00

; --- Part: ORD-004-7 ---
; Position: (2000.00, 2500.00)
; Size: 400x300 mm
; Thickness: 4 mm
G00 X2000.00 Y2500.00 F80000
G01 X2400.00 Y2500.00 F1000
G01 X2400.00 Y2800.00
G01 X2000.00 Y2800.00
G01 X2000.00 Y2500.00

; --- Part: ORD-002-1 ---
; Position: (2000.00, 2800.00)
; Size: 300x200 mm
; Thickness: 4 mm
G00 X2000.00 Y2800.00 F80000
G01 X2300.00 Y2800.00 F1000
G01 X2300.00 Y3000.00
G01 X2000.00 Y3000.00
G01 X2000.00 Y2800.00

; --- Part: ORD-002-3 ---
; Position: (2300.00, 2800.00)
; Size: 300x200 mm
; Thickness: 4 mm
G00 X2300.00 Y2800.00 F80000
G01 X2600.00 Y2800.00 F1000
G01 X2600.00 Y3000.00
G01 X2300.00 Y3000.00
G01 X2300.00 Y2800.00

; --- Part: ORD-002-13 ---
; Position: (2700.00, 2700.00)
; Size: 200x300 mm
; Thickness: 4 mm
G00 X2700.00 Y2700.00 F80000
G01 X2900.00 Y2700.00 F1000
G01 X2900.00 Y3000.00
G01 X2700.00 Y3000.00
G01 X2700.00 Y2700.00

; --- Part: ORD-002-12 ---
; Position: (2700.00, 2400.00)
; Size: 200x300 mm
; Thickness: 4 mm
G00 X2700.00 Y2400.00 F80000
G01 X2900.00 Y2400.00 F1000
G01 X2900.00 Y2700.00
G01 X2700.00 Y2700.00
G01 X2700.00 Y2400.00

; --- Part: ORD-004-14 ---
; Position: (2400.00, 2400.00)
; Size: 300x400 mm
; Thickness: 4 mm
G00 X2400.00 Y2400.00 F80000
G01 X2700.00 Y2400.00 F1000
G01 X2700.00 Y2800.00
G01 X2400.00 Y2800.00
G01 X2400.00 Y2400.00

; --- Part: ORD-004-13 ---
; Position: (2400.00, 2000.00)
; Size: 300x400 mm
; Thickness: 4 mm
G00 X2400.00 Y2000.00 F80000
G01 X2700.00 Y2000.00 F1000
G01 X2700.00 Y2400.00
G01 X2400.00 Y2400.00
G01 X2400.00 Y2000.00

; --- Part: ORD-002-11 ---
; Position: (2700.00, 2100.00)
; Size: 200x300 mm
; Thickness: 4 mm
G00 X2700.00 Y2100.00 F80000
G01 X2900.00 Y2100.00 F1000
G01 X2900.00 Y2400.00
G01 X2700.00 Y2400.00
G01 X2700.00 Y2100.00

; --- Part: ORD-002-10 ---
; Position: (2700.00, 1800.00)
; Size: 200x300 mm
; Thickness: 4 mm
G00 X2700.00 Y1800.00 F80000
G01 X2900.00 Y1800.00 F1000
G01 X2900.00 Y2100.00
G01 X2700.00 Y2100.00
G01 X2700.00 Y1800.00

; --- Part: ORD-004-12 ---
; Position: (2400.00, 1600.00)
; Size: 300x400 mm
; Thickness: 4 mm
G00 X2400.00 Y1600.00 F80000
G01 X2700.00 Y1600.00 F1000
G01 X2700.00 Y2000.00
G01 X2400.00 Y2000.00
G01 X2400.00 Y1600.00

; --- Part: ORD-002-9 ---
; Position: (2700.00, 1500.00)
; Size: 200x300 mm
; Thickness: 4 mm
G00 X2700.00 Y1500.00 F80000
G01 X2900.00 Y1500.00 F1000
G01 X2900.00 Y1800.00
G01 X2700.00 Y1800.00
G01 X2700.00 Y1500.00

; --- Part: ORD-002-19 ---
; Position: (2900.00, 1500.00)
; Size: 200x300 mm
; Thickness: 4 mm
G00 X2900.00 Y1500.00 F80000
G01 X3100.00 Y1500.00 F1000
G01 X3100.00 Y1800.00
G01 X2900.00 Y1800.00
G01 X2900.00 Y1500.00

; --- Part: ORD-002-18 ---
; Position: (2900.00, 1200.00)
; Size: 200x300 mm
; Thickness: 4 mm
G00 X2900.00 Y1200.00 F80000
G01 X3100.00 Y1200.00 F1000
G01 X3100.00 Y1500.00
G01 X2900.00 Y1500.00
G01 X2900.00 Y1200.00

; --- Part: ORD-002-8 ---
; Position: (2700.00, 1200.00)
; Size: 200x300 mm
; Thickness: 4 mm
G00 X2700.00 Y1200.00 F80000
G01 X2900.00 Y1200.00 F1000
G01 X2900.00 Y1500.00
G01 X2700.00 Y1500.00
G01 X2700.00 Y1200.00

; --- Part: ORD-004-11 ---
; Position: (2400.00, 1200.00)
; Size: 300x400 mm
; Thickness: 4 mm
G00 X2400.00 Y1200.00 F80000
G01 X2700.00 Y1200.00 F1000
G01 X2700.00 Y1600.00
G01 X2400.00 Y1600.00
G01 X2400.00 Y1200.00

; --- Part: ORD-004-10 ---
; Position: (2400.00, 800.00)
; Size: 300x400 mm
; Thickness: 4 mm
G00 X2400.00 Y800.00 F80000
G01 X2700.00 Y800.00 F1000
G01 X2700.00 Y1200.00
G01 X2400.00 Y1200.00
G01 X2400.00 Y800.00

; --- Part: ORD-002-7 ---
; Position: (2700.00, 900.00)
; Size: 200x300 mm
; Thickness: 4 mm
G00 X2700.00 Y900.00 F80000
G01 X2900.00 Y900.00 F1000
G01 X2900.00 Y1200.00
G01 X2700.00 Y1200.00
G01 X2700.00 Y900.00

; --- Part: ORD-002-17 ---
; Position: (2900.00, 900.00)
; Size: 200x300 mm
; Thickness: 4 mm
G00 X2900.00 Y900.00 F80000
G01 X3100.00 Y900.00 F1000
G01 X3100.00 Y1200.00
G01 X2900.00 Y1200.00
G01 X2900.00 Y900.00

; --- Part: ORD-002-16 ---
; Position: (2900.00, 600.00)
; Size: 200x300 mm
; Thickness: 4 mm
G00 X2900.00 Y600.00 F80000
G01 X3100.00 Y600.00 F1000
G01 X3100.00 Y900.00
G01 X2900.00 Y900.00
G01 X2900.00 Y600.00

; --- Part: ORD-002-6 ---
; Position: (2700.00, 600.00)
; Size: 200x300 mm
; Thickness: 4 mm
G00 X2700.00 Y600.00 F80000
G01 X2900.00 Y600.00 F1000
G01 X2900.00 Y900.00
G01 X2700.00 Y900.00
G01 X2700.00 Y600.00

; --- Part: ORD-004-9 ---
; Position: (2400.00, 400.00)
; Size: 300x400 mm
; Thickness: 4 mm
G00 X2400.00 Y400.00 F80000
G01 X2700.00 Y400.00 F1000
G01 X2700.00 Y800.00
G01 X2400.00 Y800.00
G01 X2400.00 Y400.00

; --- Part: ORD-002-5 ---
; Position: (2700.00, 300.00)
; Size: 200x300 mm
; Thickness: 4 mm
G00 X2700.00 Y300.00 F80000
G01 X2900.00 Y300.00 F1000
G01 X2900.00 Y600.00
G01 X2700.00 Y600.00
G01 X2700.00 Y300.00

; --- Part: ORD-002-15 ---
; Position: (2900.00, 300.00)
; Size: 200x300 mm
; Thickness: 4 mm
G00 X2900.00 Y300.00 F80000
G01 X3100.00 Y300.00 F1000
G01 X3100.00 Y600.00
G01 X2900.00 Y600.00
G01 X2900.00 Y300.00

; --- Part: ORD-002-14 ---
; Position: (2900.00, 0.00)
; Size: 200x300 mm
; Thickness: 4 mm
G00 X2900.00 Y0.00 F80000
G01 X3100.00 Y0.00 F1000
G01 X3100.00 Y300.00
G01 X2900.00 Y300.00
G01 X2900.00 Y0.00

; --- Part: ORD-002-4 ---
; Position: (2700.00, 0.00)
; Size: 200x300 mm
; Thickness: 4 mm
G00 X2700.00 Y0.00 F80000
G01 X2900.00 Y0.00 F1000
G01 X2900.00 Y300.00
G01 X2700.00 Y300.00
G01 X2700.00 Y0.00

; --- Part: ORD-004-8 ---
; Position: (2400.00, 0.00)
; Size: 300x400 mm
; Thickness: 4 mm
G00 X2400.00 Y0.00 F80000
G01 X2700.00 Y0.00 F1000
G01 X2700.00 Y400.00
G01 X2400.00 Y400.00
G01 X2400.00 Y0.00

; --- Part: ORD-001-8 ---
; Position: (2000.00, 0.00)
; Size: 400x500 mm
; Thickness: 4 mm
G00 X2000.00 Y0.00 F80000
G01 X2400.00 Y0.00 F1000
G01 X2400.00 Y500.00
G01 X2000.00 Y500.00
G01 X2000.00 Y0.00

; --- Part: ORD-001-2 ---
; Position: (1600.00, 0.00)
; Size: 400x500 mm
; Thickness: 4 mm
G00 X1600.00 Y0.00 F80000
G01 X2000.00 Y0.00 F1000
G01 X2000.00 Y500.00
G01 X1600.00 Y500.00
G01 X1600.00 Y0.00

; --- Part: ORD-003-2 ---
; Position: (1000.00, 0.00)
; Size: 600x800 mm
; Thickness: 4 mm
G00 X1000.00 Y0.00 F80000
G01 X1600.00 Y0.00 F1000
G01 X1600.00 Y800.00
G01 X1000.00 Y800.00
G01 X1000.00 Y0.00

; --- Part: ORD-001-3 ---
; Position: (1600.00, 500.00)
; Size: 400x500 mm
; Thickness: 4 mm
G00 X1600.00 Y500.00 F80000
G01 X2000.00 Y500.00 F1000
G01 X2000.00 Y1000.00
G01 X1600.00 Y1000.00
G01 X1600.00 Y500.00

; --- Part: ORD-001-9 ---
; Position: (2000.00, 500.00)
; Size: 400x500 mm
; Thickness: 4 mm
G00 X2000.00 Y500.00 F80000
G01 X2400.00 Y500.00 F1000
G01 X2400.00 Y1000.00
G01 X2000.00 Y1000.00
G01 X2000.00 Y500.00

; --- Part: ORD-004-1 ---
; Position: (2000.00, 1000.00)
; Size: 400x300 mm
; Thickness: 4 mm
G00 X2000.00 Y1000.00 F80000
G01 X2400.00 Y1000.00 F1000
G01 X2400.00 Y1300.00
G01 X2000.00 Y1300.00
G01 X2000.00 Y1000.00

; --- Part: ORD-004-3 ---
; Position: (2000.00, 1300.00)
; Size: 400x300 mm
; Thickness: 4 mm
G00 X2000.00 Y1300.00 F80000
G01 X2400.00 Y1300.00 F1000
G01 X2400.00 Y1600.00
G01 X2000.00 Y1600.00
G01 X2000.00 Y1300.00

; --- Part: ORD-004-4 ---
; Position: (2000.00, 1600.00)
; Size: 400x300 mm
; Thickness: 4 mm
G00 X2000.00 Y1600.00 F80000
G01 X2400.00 Y1600.00 F1000
G01 X2400.00 Y1900.00
G01 X2000.00 Y1900.00
G01 X2000.00 Y1600.00

; --- Part: ORD-001-4 ---
; Position: (1600.00, 1000.00)
; Size: 400x500 mm
; Thickness: 4 mm
G00 X1600.00 Y1000.00 F80000
G01 X2000.00 Y1000.00 F1000
G01 X2000.00 Y1500.00
G01 X1600.00 Y1500.00
G01 X1600.00 Y1000.00

; --- Part: ORD-001-5 ---
; Position: (1600.00, 1500.00)
; Size: 400x500 mm
; Thickness: 4 mm
G00 X1600.00 Y1500.00 F80000
G01 X2000.00 Y1500.00 F1000
G01 X2000.00 Y2000.00
G01 X1600.00 Y2000.00
G01 X1600.00 Y1500.00

; --- Part: ORD-003-4 ---
; Position: (800.00, 1600.00)
; Size: 800x600 mm
; Thickness: 4 mm
G00 X800.00 Y1600.00 F80000
G01 X1600.00 Y1600.00 F1000
G01 X1600.00 Y2200.00
G01 X800.00 Y2200.00
G01 X800.00 Y1600.00

; --- Part: ORD-003-3 ---
; Position: (1000.00, 800.00)
; Size: 600x800 mm
; Thickness: 4 mm
G00 X1000.00 Y800.00 F80000
G01 X1600.00 Y800.00 F1000
G01 X1600.00 Y1600.00
G01 X1000.00 Y1600.00
G01 X1000.00 Y800.00

; --- End Cutting ---
M05

; Return to home
G00 X0 Y0

M30

; --- End of Program ---