; ================================================
; LiSEC GFB-60/30RE Glass Cutting Program
; Generated by AI GlassCuttingProgram
; Date: 2026-04-13T09:32:06.366406
; Program: sample_lamine_cut
; ================================================

; Glass type: laminated
; Parts count: 2

; --- Machine Initialization ---
G21
G90
G17

; --- Safety Check ---
; Verify sheet position
; Verify coolant (if required)

; --- Start Cutting ---
M03 S1000


; --- Part: ORD-005-L1 ---
; Position: (150.00, 150.00)
; Size: 1000x800 mm
; Thickness: 8.0 mm
G00 X150.00 Y150.00 F80000

; Laminated glass sequence
; Step 1: Upper glass cut
G01 X1150.00 Y150.00 F1000
G01 X1150.00 Y950.00
G01 X150.00 Y950.00
G01 X150.00 Y150.00

; Step 2: Heating
G00 X650.00 Y550.00
G04 P4.0 ; Heat for 4 seconds

; Step 3: Lower glass cut
G01 X1150.00 Y150.00
G01 X1150.00 Y950.00
G01 X150.00 Y950.00
G01 X150.00 Y150.00

; Step 4: Break-out
G00 X650.00 Y550.00
; Apply break pressure

; --- Part: ORD-005-L2 ---
; Position: (1270.00, 150.00)
; Size: 1000x800 mm
; Thickness: 8.0 mm
G00 X1270.00 Y150.00 F80000

; Laminated glass sequence
; Step 1: Upper glass cut
G01 X2270.00 Y150.00 F1000
G01 X2270.00 Y950.00
G01 X1270.00 Y950.00
G01 X1270.00 Y150.00

; Step 2: Heating
G00 X1770.00 Y550.00
G04 P4.0 ; Heat for 4 seconds

; Step 3: Lower glass cut
G01 X2270.00 Y150.00
G01 X2270.00 Y950.00
G01 X1270.00 Y950.00
G01 X1270.00 Y150.00

; Step 4: Break-out
G00 X1770.00 Y550.00
; Apply break pressure

; --- End Cutting ---
M05

; Return to home
G00 X0 Y0

M30

; --- End of Program ---